; HEADER_BLOCK_START
; generated by OrcaSlicer 2.3.1 on 2026-02-24 at 12:37:15
; total layer number: 90
; filament_density: 1.24
; filament_diameter: 1.75
; max_z_height: 18.00
; HEADER_BLOCK_END

; THUMBNAIL_BLOCK_START

;
; THUMBNAIL_BLOCK_END

; THUMBNAIL_BLOCK_START

;
; THUMBNAIL_BLOCK_END

; external perimeters extrusion width = 0.42mm
; perimeters extrusion width = 0.45mm
; infill extrusion width = 0.45mm
; solid infill extrusion width = 0.42mm
; top infill extrusion width = 0.42mm
; first layer extrusion width = 0.50mm

; EXECUTABLE_BLOCK_START
EXCLUDE_OBJECT_DEFINE NAME=EFA_V1-Fusion.stl_id_0_copy_0 CENTER=148.294,135.671 POLYGON=[[58.794,132.671],[59.794,130.671],[236.794,130.671],[237.794,132.671],[237.794,138.671],[232.894,140.671],[63.694,140.671],[58.794,138.671],[58.794,132.671]]
M73 P0 R34
M106 S0
M106 P2 S0
;TYPE:Custom
M140 S0
M104 S0 
START_PRINT EXTRUDER_TEMP=200 BED_TEMP=60
G90
G21
M83 ; use relative distances for extrusion
; filament start gcode
M106 S0
M106 P2 S0
;LAYER_CHANGE
;Z:0.2
;HEIGHT:0.2
;BEFORE_LAYER_CHANGE
;0.2
G92 E0

G1 E-.6 F2400
;_SET_FAN_SPEED_CHANGING_LAYER
SET_VELOCITY_LIMIT ACCEL=500 ACCEL_TO_DECEL=250
SET_VELOCITY_LIMIT SQUARE_CORNER_VELOCITY=9
EXCLUDE_OBJECT_START NAME=EFA_V1-Fusion.stl_id_0_copy_0
G1 Z.4 F30000
G1 X63.622 Y137.617
G1 Z.4
G1 Z.2
G1 E.6 F2400
;TYPE:Inner wall
;WIDTH:0.499999
G1 F3600
G1 X63.767 Y137.508 E.00675
G1 X63.879 Y137.301 E.00878
G1 X64.05 Y136.805 E.01953
G1 X64.064 Y136.583 E.00831
G1 X63.986 Y136.21 E.01418
G1 X63.73 Y135.817 E.01747
G1 X62.117 Y134.205 E.08492
G1 X62.025 Y133.991 E.00868
G1 X62.179 Y133.949 E.00594
G1 X62.673 Y133.626 E.022
G1 X62.878 Y133.301 E.01434
G1 X62.977 Y133.062 E.0096
G1 X63.064 Y132.62 E.01678
G1 X62.855 Y132.006 E.02417
G1 X233.733 Y132.006 E6.36454
G1 X233.524 Y132.62 E.02417
G1 X233.611 Y133.062 E.01678
G1 X233.686 Y133.242 E.00724
G1 X233.915 Y133.626 E.01667
G1 X234.409 Y133.949 E.022
G1 X234.563 Y133.991 E.00594
G1 X234.505 Y134.171 E.00705
G1 X233.251 Y135.424 E.06601
G1 X232.703 Y136.012 E.02993
G1 X232.547 Y136.398 E.01554
G1 X232.538 Y136.805 E.01516
G1 X232.611 Y137.063 E.00996
G1 X232.822 Y137.508 E.01835
G1 X233.41 Y137.95 E.02739
G1 X233.563 Y137.992 E.00594
G1 X233.505 Y138.171 E.00704
G1 X232.341 Y139.335 E.0613
G1 X64.247 Y139.335 E6.26084
G1 X63.117 Y138.205 E.05951
G1 X63.025 Y137.992 E.00867
G1 X63.178 Y137.95 E.00594
G1 X63.59 Y137.641 E.01915
G1 X63.315 Y137.306 F30000
G1 F3600
G1 X63.389 Y137.25 E.00345
G1 X63.555 Y136.888 E.01485
G1 X63.607 Y136.6 E.0109
G1 X63.56 Y136.376 E.00851
G1 X63.406 Y136.141 E.01048
G1 X61.66 Y134.394 E.09199
G1 X61.642 Y134.276 E.00445
G1 X61.547 Y134.082 E.00805
G1 X61.36 Y134.003 E.00755
;WIDTH:0.464348
G1 X61.174 Y133.924 E.00696
;WIDTH:0.428697
G1 X60.987 Y133.846 E.00637
;WIDTH:0.393045
G1 X59.619 Y133.846 E.03903
G1 X59.619 Y133.496 E.00999
G1 X60.987 Y133.495 E.03903
;WIDTH:0.428697
G1 X61.306 Y133.51 E.01003
;WIDTH:0.464348
G1 X61.625 Y133.524 E.01096
;WIDTH:0.499999
G1 X61.944 Y133.538 E.01189
G1 X62.333 Y133.321 E.0166
G1 X62.48 Y133.067 E.01093
G1 X62.607 Y132.622 E.01723
G1 X62.467 Y132.21 E.01624
G1 X61.768 Y131.549 E.03581
G1 X62.072 Y131.533 E.01135
G1 X62.794 Y131.549 E.02687
G1 X232.912 Y131.549 E6.33627
G1 X234.84 Y131.525 E.07181
G1 X234.131 Y132.198 E.03641
G1 X233.981 Y132.622 E.01678
G1 X234.033 Y132.888 E.01007
G1 X234.255 Y133.321 E.01814
G1 X234.552 Y133.515 E.0132
G1 X234.765 Y133.549 E.00805
G1 X235.044 Y133.531 E.0104
;WIDTH:0.464348
G1 X235.323 Y133.513 E.00959
;WIDTH:0.428697
G1 X235.601 Y133.495 E.00878
;WIDTH:0.393045
G1 X236.969 Y133.496 E.03903
G1 X236.969 Y133.846 E.00999
G1 X235.504 Y133.846 E.04179
;WIDTH:0.428697
G1 X235.35 Y133.924 E.00545
;WIDTH:0.464348
G1 X235.196 Y134.003 E.00595
;WIDTH:0.499999
G1 X235.041 Y134.082 E.00645
G1 X234.98 Y134.187 E.00452
G1 X234.928 Y134.394 E.00796
G1 X233.088 Y136.257 E.09752
G1 X232.995 Y136.489 E.00932
G1 X232.989 Y136.733 E.0091
G1 X233.199 Y137.25 E.02077
G1 X233.552 Y137.515 E.01643
G1 X233.765 Y137.549 E.00805
G1 X234.044 Y137.531 E.0104
;WIDTH:0.464306
G1 X234.322 Y137.514 E.00959
;WIDTH:0.428613
G1 X234.601 Y137.496 E.00878
;WIDTH:0.39292
G1 X236.969 Y137.496 E.06753
G1 X236.969 Y137.846 E.00998
G1 X234.504 Y137.846 E.0703
;WIDTH:0.428613
G1 X234.35 Y137.924 E.00545
;WIDTH:0.464306
G1 X234.195 Y138.003 E.00595
;WIDTH:0.499999
G1 X234.041 Y138.082 E.00645
G1 X233.98 Y138.187 E.00451
G1 X233.928 Y138.394 E.00796
G1 X232.53 Y139.792 E.07363
G1 X64.058 Y139.792 E6.27494
G1 X62.66 Y138.394 E.07363
G1 X62.642 Y138.276 E.00445
G1 X62.547 Y138.082 E.00805
G1 X62.36 Y138.003 E.00755
;WIDTH:0.464306
G1 X62.174 Y137.924 E.00696
;WIDTH:0.428613
G1 X61.987 Y137.846 E.00637
;WIDTH:0.39292
G1 X59.619 Y137.846 E.06753
G1 X59.619 Y137.496 E.00998
G1 X61.987 Y137.496 E.06753
;WIDTH:0.428613
G1 X62.266 Y137.514 E.00878
;WIDTH:0.464306
G1 X62.544 Y137.531 E.00959
;WIDTH:0.499999
G1 X62.823 Y137.549 E.0104
G1 X63.036 Y137.515 E.00805
G1 X63.283 Y137.33 E.01149
G1 X62.994 Y136.98 F30000
;TYPE:Outer wall
G1 F3600
G1 X63.129 Y136.618 E.01441
G1 X63.068 Y136.479 E.00564
G1 X61.194 Y134.605 E.09871
G1 X61.174 Y134.39 E.00804
G1 X60.987 Y134.271 E.00828
G1 X59.194 Y134.271 E.06678
G1 X59.194 Y133.071 E.0447
G1 X61.823 Y133.07 E.09791
G1 X61.977 Y133.002 E.00629
G1 X62.128 Y132.624 E.01514
G1 X62.066 Y132.477 E.00594
G1 X61.639 Y132.059 E.02228
G1 X61.011 Y131.554 E.03001
G1 X60.306 Y130.93 E.03507
G1 X60.761 Y130.921 E.01693
G1 X61.267 Y130.995 E.01906
G1 X62.083 Y131.055 E.03046
G1 X62.794 Y131.07 E.02648
G1 X232.912 Y131.07 E6.33627
G1 X234.823 Y131.047 E.07119
G1 X235.798 Y130.922 E.03659
G1 X236.278 Y130.921 E.01788
G1 X235.938 Y131.26 E.0179
G1 X235.277 Y131.771 E.03111
G1 X234.525 Y132.474 E.03832
G1 X234.46 Y132.624 E.00611
G1 X234.611 Y133.002 E.01514
G1 X234.765 Y133.07 E.00629
G1 X237.394 Y133.071 E.09791
G1 X237.394 Y134.271 E.0447
G1 X235.601 Y134.271 E.06678
G1 X235.432 Y134.358 E.00709
G1 X235.394 Y134.605 E.0093
G1 X233.52 Y136.479 E.09871
G1 X233.46 Y136.618 E.00564
G1 X233.594 Y136.98 E.01441
G1 X233.765 Y137.071 E.0072
G1 X237.394 Y137.071 E.13516
G1 X237.394 Y138.271 E.0447
G1 X234.601 Y138.271 E.10403
G1 X234.432 Y138.358 E.00709
G1 X234.394 Y138.605 E.0093
G1 X232.728 Y140.271 E.08774
G1 X63.86 Y140.271 E6.28971
G1 X62.194 Y138.605 E.08774
M73 P1 R34
G1 X62.174 Y138.39 E.00804
G1 X61.987 Y138.271 E.00828
G1 X59.194 Y138.271 E.10403
G1 X59.194 Y137.071 E.0447
G1 X62.823 Y137.071 E.13516
G1 X62.959 Y136.999 E.00571
;WIPE_START
G1 X63.129 Y136.618 E-.12527
G1 X63.068 Y136.479 E-.0454
G1 X62.056 Y135.467 E-.42934
;WIPE_END
G1 Z.4 F30000
G1 X233.456 Y132.964 Z.4
G1 Z.2
G1 E.6 F2400
;TYPE:Bottom surface
;WIDTH:0.501478
G1 F6008.187
G1 X232.842 Y132.349 E.03249
G1 X232.193 Y132.349 E.02423
G1 X234.018 Y134.173 E.09641
G1 X233.693 Y134.498 E.01713
G1 X231.545 Y132.349 E.11355
G1 X230.896 Y132.349 E.02423
G1 X233.369 Y134.822 E.13068
G1 X233.045 Y135.146 E.01713
G1 X230.248 Y132.349 E.14782
G1 X229.599 Y132.349 E.02423
G1 X232.721 Y135.47 E.16495
G1 X232.42 Y135.818 E.01718
G1 X228.951 Y132.349 E.18333
G1 X228.302 Y132.349 E.02423
G1 X232.227 Y136.274 E.2074
G1 X232.182 Y136.571 E.01124
G1 X232.212 Y136.907 E.01263
G1 X227.654 Y132.349 E.2409
G1 X227.005 Y132.349 E.02423
G1 X232.924 Y138.267 E.31276
G1 X232.599 Y138.592 E.01713
G1 X226.357 Y132.349 E.32989
G1 X225.708 Y132.349 E.02423
G1 X232.275 Y138.916 E.34703
G1 X232.199 Y138.992 E.00404
G1 X231.703 Y138.992 E.01852
G1 X225.06 Y132.349 E.35106
G1 X224.411 Y132.349 E.02423
G1 X231.055 Y138.992 E.35106
G1 X230.406 Y138.992 E.02423
G1 X223.763 Y132.349 E.35106
G1 X223.114 Y132.349 E.02423
G1 X229.758 Y138.992 E.35106
G1 X229.109 Y138.992 E.02423
G1 X222.466 Y132.349 E.35106
G1 X221.817 Y132.349 E.02423
G1 X228.461 Y138.992 E.35106
G1 X227.812 Y138.992 E.02423
G1 X221.169 Y132.349 E.35106
G1 X220.52 Y132.349 E.02423
G1 X227.164 Y138.992 E.35106
G1 X226.515 Y138.992 E.02423
G1 X219.872 Y132.349 E.35106
G1 X219.223 Y132.349 E.02423
G1 X225.867 Y138.992 E.35106
G1 X225.218 Y138.992 E.02423
G1 X218.575 Y132.349 E.35106
G1 X217.926 Y132.349 E.02423
G1 X224.57 Y138.992 E.35106
G1 X223.921 Y138.992 E.02423
G1 X217.278 Y132.349 E.35106
G1 X216.629 Y132.349 E.02423
G1 X223.273 Y138.992 E.35106
G1 X222.624 Y138.992 E.02423
G1 X215.981 Y132.349 E.35106
G1 X215.332 Y132.349 E.02423
G1 X221.976 Y138.992 E.35106
G1 X221.327 Y138.992 E.02423
G1 X214.684 Y132.349 E.35106
G1 X214.035 Y132.349 E.02423
G1 X220.679 Y138.992 E.35106
G1 X220.03 Y138.992 E.02423
G1 X213.387 Y132.349 E.35106
G1 X212.738 Y132.349 E.02423
G1 X219.382 Y138.992 E.35106
G1 X218.733 Y138.992 E.02423
G1 X212.09 Y132.349 E.35106
G1 X211.441 Y132.349 E.02423
G1 X218.085 Y138.992 E.35106
G1 X217.436 Y138.992 E.02423
G1 X210.793 Y132.349 E.35106
G1 X210.144 Y132.349 E.02423
G1 X216.788 Y138.992 E.35106
G1 X216.139 Y138.992 E.02423
G1 X209.496 Y132.349 E.35106
G1 X208.847 Y132.349 E.02423
G1 X215.491 Y138.992 E.35106
G1 X214.842 Y138.992 E.02423
G1 X208.199 Y132.349 E.35106
G1 X207.55 Y132.349 E.02423
G1 X214.194 Y138.992 E.35106
G1 X213.545 Y138.992 E.02423
G1 X206.902 Y132.349 E.35106
G1 X206.253 Y132.349 E.02423
G1 X212.897 Y138.992 E.35106
G1 X212.248 Y138.992 E.02423
G1 X205.605 Y132.349 E.35106
G1 X204.956 Y132.349 E.02423
G1 X211.6 Y138.992 E.35106
G1 X210.951 Y138.992 E.02423
G1 X204.308 Y132.349 E.35106
G1 X203.659 Y132.349 E.02423
G1 X210.303 Y138.992 E.35106
G1 X209.654 Y138.992 E.02423
G1 X203.011 Y132.349 E.35106
G1 X202.362 Y132.349 E.02423
G1 X209.006 Y138.992 E.35106
G1 X208.357 Y138.992 E.02423
G1 X201.714 Y132.349 E.35106
G1 X201.065 Y132.349 E.02423
G1 X207.709 Y138.992 E.35106
G1 X207.06 Y138.992 E.02423
G1 X200.417 Y132.349 E.35106
G1 X199.768 Y132.349 E.02423
G1 X206.412 Y138.992 E.35106
G1 X205.763 Y138.992 E.02423
G1 X199.12 Y132.349 E.35106
G1 X198.471 Y132.349 E.02423
G1 X205.115 Y138.992 E.35106
G1 X204.466 Y138.992 E.02423
G1 X197.823 Y132.349 E.35106
G1 X197.174 Y132.349 E.02423
G1 X203.818 Y138.992 E.35106
G1 X203.169 Y138.992 E.02423
G1 X196.526 Y132.349 E.35106
G1 X195.877 Y132.349 E.02423
G1 X202.521 Y138.992 E.35106
G1 X201.872 Y138.992 E.02423
G1 X195.229 Y132.349 E.35106
G1 X194.58 Y132.349 E.02423
G1 X201.224 Y138.992 E.35106
G1 X200.575 Y138.992 E.02423
G1 X193.932 Y132.349 E.35106
G1 X193.283 Y132.349 E.02423
G1 X199.927 Y138.992 E.35106
G1 X199.278 Y138.992 E.02423
M73 P2 R34
G1 X192.635 Y132.349 E.35106
G1 X191.986 Y132.349 E.02423
G1 X198.63 Y138.992 E.35106
G1 X197.981 Y138.992 E.02423
G1 X191.338 Y132.349 E.35106
G1 X190.689 Y132.349 E.02423
G1 X197.333 Y138.992 E.35106
G1 X196.684 Y138.992 E.02423
G1 X190.041 Y132.349 E.35106
G1 X189.392 Y132.349 E.02423
G1 X196.036 Y138.992 E.35106
G1 X195.387 Y138.992 E.02423
G1 X188.744 Y132.349 E.35106
G1 X188.095 Y132.349 E.02423
G1 X194.739 Y138.992 E.35106
G1 X194.09 Y138.992 E.02423
G1 X187.447 Y132.349 E.35106
G1 X186.798 Y132.349 E.02423
G1 X193.442 Y138.992 E.35106
G1 X192.793 Y138.992 E.02423
G1 X186.15 Y132.349 E.35106
G1 X185.501 Y132.349 E.02423
G1 X192.145 Y138.992 E.35106
G1 X191.496 Y138.992 E.02423
G1 X184.853 Y132.349 E.35106
G1 X184.204 Y132.349 E.02423
G1 X190.848 Y138.992 E.35106
G1 X190.199 Y138.992 E.02423
G1 X183.556 Y132.349 E.35106
G1 X182.907 Y132.349 E.02423
G1 X189.551 Y138.992 E.35106
G1 X188.902 Y138.992 E.02423
G1 X182.259 Y132.349 E.35106
G1 X181.61 Y132.349 E.02423
G1 X188.254 Y138.992 E.35106
G1 X187.605 Y138.992 E.02423
G1 X180.962 Y132.349 E.35106
G1 X180.313 Y132.349 E.02423
G1 X186.957 Y138.992 E.35106
G1 X186.308 Y138.992 E.02423
G1 X179.665 Y132.349 E.35106
G1 X179.016 Y132.349 E.02423
G1 X185.66 Y138.992 E.35106
G1 X185.011 Y138.992 E.02423
G1 X178.368 Y132.349 E.35106
G1 X177.719 Y132.349 E.02423
G1 X184.363 Y138.992 E.35106
G1 X183.714 Y138.992 E.02423
G1 X177.071 Y132.349 E.35106
G1 X176.422 Y132.349 E.02423
G1 X183.066 Y138.992 E.35106
G1 X182.417 Y138.992 E.02423
G1 X175.774 Y132.349 E.35106
G1 X175.125 Y132.349 E.02423
G1 X181.769 Y138.992 E.35106
G1 X181.12 Y138.992 E.02423
G1 X174.477 Y132.349 E.35106
G1 X173.828 Y132.349 E.02423
G1 X180.472 Y138.992 E.35106
G1 X179.823 Y138.992 E.02423
G1 X173.18 Y132.349 E.35106
G1 X172.531 Y132.349 E.02423
G1 X179.175 Y138.992 E.35106
G1 X178.526 Y138.992 E.02423
G1 X171.883 Y132.349 E.35106
G1 X171.234 Y132.349 E.02423
G1 X177.878 Y138.992 E.35106
G1 X177.229 Y138.992 E.02423
G1 X170.586 Y132.349 E.35106
G1 X169.937 Y132.349 E.02423
G1 X176.581 Y138.992 E.35106
G1 X175.932 Y138.992 E.02423
G1 X169.289 Y132.349 E.35106
G1 X168.64 Y132.349 E.02423
G1 X175.284 Y138.992 E.35106
G1 X174.635 Y138.992 E.02423
G1 X167.992 Y132.349 E.35106
G1 X167.343 Y132.349 E.02423
G1 X173.987 Y138.992 E.35106
G1 X173.338 Y138.992 E.02423
G1 X166.695 Y132.349 E.35106
G1 X166.046 Y132.349 E.02423
M73 P2 R33
G1 X172.69 Y138.992 E.35106
G1 X172.041 Y138.992 E.02423
G1 X165.398 Y132.349 E.35106
G1 X164.749 Y132.349 E.02423
G1 X171.393 Y138.992 E.35106
G1 X170.744 Y138.992 E.02423
G1 X164.101 Y132.349 E.35106
G1 X163.452 Y132.349 E.02423
G1 X170.096 Y138.992 E.35106
G1 X169.447 Y138.992 E.02423
G1 X162.804 Y132.349 E.35106
G1 X162.155 Y132.349 E.02423
G1 X168.799 Y138.992 E.35106
G1 X168.15 Y138.992 E.02423
G1 X161.507 Y132.349 E.35106
G1 X160.858 Y132.349 E.02423
G1 X167.502 Y138.992 E.35106
G1 X166.853 Y138.992 E.02423
G1 X160.21 Y132.349 E.35106
G1 X159.561 Y132.349 E.02423
G1 X166.205 Y138.992 E.35106
G1 X165.556 Y138.992 E.02423
G1 X158.913 Y132.349 E.35106
G1 X158.264 Y132.349 E.02423
G1 X164.908 Y138.992 E.35106
G1 X164.259 Y138.992 E.02423
G1 X157.616 Y132.349 E.35106
G1 X156.967 Y132.349 E.02423
G1 X163.611 Y138.992 E.35106
G1 X162.962 Y138.992 E.02423
G1 X156.319 Y132.349 E.35106
G1 X155.67 Y132.349 E.02423
G1 X162.314 Y138.992 E.35106
G1 X161.665 Y138.992 E.02423
G1 X155.022 Y132.349 E.35106
G1 X154.373 Y132.349 E.02423
G1 X161.017 Y138.992 E.35106
G1 X160.368 Y138.992 E.02423
G1 X153.725 Y132.349 E.35106
G1 X153.076 Y132.349 E.02423
G1 X159.72 Y138.992 E.35106
G1 X159.071 Y138.992 E.02423
G1 X152.428 Y132.349 E.35106
G1 X151.779 Y132.349 E.02423
G1 X158.423 Y138.992 E.35106
G1 X157.774 Y138.992 E.02423
G1 X151.131 Y132.349 E.35106
G1 X150.482 Y132.349 E.02423
G1 X157.126 Y138.992 E.35106
G1 X156.477 Y138.992 E.02423
G1 X149.834 Y132.349 E.35106
G1 X149.185 Y132.349 E.02423
G1 X155.829 Y138.992 E.35106
G1 X155.18 Y138.992 E.02423
G1 X148.537 Y132.349 E.35106
G1 X147.888 Y132.349 E.02423
G1 X154.532 Y138.992 E.35106
G1 X153.883 Y138.992 E.02423
G1 X147.24 Y132.349 E.35106
G1 X146.591 Y132.349 E.02423
G1 X153.235 Y138.992 E.35106
G1 X152.586 Y138.992 E.02423
G1 X145.943 Y132.349 E.35106
G1 X145.294 Y132.349 E.02423
M73 P3 R33
G1 X151.938 Y138.992 E.35106
G1 X151.289 Y138.992 E.02423
G1 X144.646 Y132.349 E.35106
G1 X143.997 Y132.349 E.02423
G1 X150.641 Y138.992 E.35106
G1 X149.992 Y138.992 E.02423
G1 X143.349 Y132.349 E.35106
G1 X142.7 Y132.349 E.02423
G1 X149.344 Y138.992 E.35106
G1 X148.695 Y138.992 E.02423
G1 X142.052 Y132.349 E.35106
G1 X141.403 Y132.349 E.02423
G1 X148.047 Y138.992 E.35106
G1 X147.398 Y138.992 E.02423
G1 X140.755 Y132.349 E.35106
G1 X140.106 Y132.349 E.02423
G1 X146.75 Y138.992 E.35106
G1 X146.101 Y138.992 E.02423
G1 X139.458 Y132.349 E.35106
G1 X138.809 Y132.349 E.02423
G1 X145.453 Y138.992 E.35106
G1 X144.804 Y138.992 E.02423
G1 X138.161 Y132.349 E.35106
G1 X137.512 Y132.349 E.02423
G1 X144.156 Y138.992 E.35106
G1 X143.507 Y138.992 E.02423
G1 X136.864 Y132.349 E.35106
G1 X136.215 Y132.349 E.02423
G1 X142.859 Y138.992 E.35106
G1 X142.21 Y138.992 E.02423
G1 X135.567 Y132.349 E.35106
G1 X134.918 Y132.349 E.02423
G1 X141.562 Y138.992 E.35106
G1 X140.913 Y138.992 E.02423
G1 X134.27 Y132.349 E.35106
G1 X133.621 Y132.349 E.02423
G1 X140.265 Y138.992 E.35106
G1 X139.616 Y138.992 E.02423
G1 X132.973 Y132.349 E.35106
G1 X132.324 Y132.349 E.02423
G1 X138.968 Y138.992 E.35106
G1 X138.319 Y138.992 E.02423
G1 X131.676 Y132.349 E.35106
G1 X131.027 Y132.349 E.02423
G1 X137.671 Y138.992 E.35106
G1 X137.022 Y138.992 E.02423
G1 X130.379 Y132.349 E.35106
G1 X129.73 Y132.349 E.02423
G1 X136.374 Y138.992 E.35106
