; HEADER_BLOCK_START
; generated by OrcaSlicer 2.3.1 on 2026-02-27 at 13:51:53
; total layer number: 90
; filament_density: 1.24
; filament_diameter: 1.75
; max_z_height: 18.00
; HEADER_BLOCK_END

; THUMBNAIL_BLOCK_START

;
; THUMBNAIL_BLOCK_END

; THUMBNAIL_BLOCK_START

;
; THUMBNAIL_BLOCK_END

; external perimeters extrusion width = 0.42mm
; perimeters extrusion width = 0.45mm
; infill extrusion width = 0.45mm
; solid infill extrusion width = 0.42mm
; top infill extrusion width = 0.42mm
; first layer extrusion width = 0.50mm

; EXECUTABLE_BLOCK_START
EXCLUDE_OBJECT_DEFINE NAME=EFA_V2-Fusion.stl_id_0_copy_0 CENTER=150,150 POLYGON=[[61.5,147.1],[65.5,144.9],[234.5,144.9],[238.5,147.1],[238.5,152.9],[234.5,155.1],[65.5,155.1],[61.5,152.9],[61.5,147.1]]
M73 P0 R32
M106 S0
M106 P2 S0
;TYPE:Custom
M140 S0
M104 S0 
START_PRINT EXTRUDER_TEMP=200 BED_TEMP=60
G90
G21
M83 ; use relative distances for extrusion
; filament start gcode
M106 S0
M106 P2 S0
;LAYER_CHANGE
;Z:0.2
;HEIGHT:0.2
;BEFORE_LAYER_CHANGE
;0.2
G92 E0

G1 E-.6 F2400
;_SET_FAN_SPEED_CHANGING_LAYER
SET_VELOCITY_LIMIT ACCEL=500 ACCEL_TO_DECEL=250
SET_VELOCITY_LIMIT SQUARE_CORNER_VELOCITY=9
EXCLUDE_OBJECT_START NAME=EFA_V2-Fusion.stl_id_0_copy_0
G1 Z.4 F30000
G1 X66.809 Y148.546
G1 Z.4
G1 Z.2
G1 E.6 F2400
;TYPE:Inner wall
;WIDTH:0.499999
G1 F3600
G1 X66.777 Y148.345 E.00761
G1 X66.574 Y148 E.0149
G1 X66.777 Y147.655 E.0149
G1 X66.836 Y147.293 E.01367
G1 X66.836 Y146.236 E.03938
G1 X233.164 Y146.236 E6.19511
G1 X233.164 Y147.293 E.03938
G1 X233.223 Y147.655 E.01367
G1 X233.426 Y148 E.0149
G1 X233.223 Y148.345 E.0149
G1 X233.164 Y148.707 E.01367
G1 X233.164 Y151.293 E.09631
G1 X233.223 Y151.655 E.01367
G1 X233.426 Y152 E.0149
G1 X233.223 Y152.345 E.0149
G1 X233.164 Y152.707 E.01367
G1 X233.164 Y153.764 E.03938
G1 X66.836 Y153.764 E6.19511
G1 X66.836 Y152.707 E.03938
G1 X66.777 Y152.345 E.01367
G1 X66.574 Y152 E.0149
G1 X66.777 Y151.655 E.0149
G1 X66.836 Y151.293 E.01367
G1 X66.836 Y148.707 E.09631
G1 X66.816 Y148.586 E.00457
G1 X66.365 Y148.625 F30000
G1 F3600
G1 X66.343 Y148.49 E.0051
G1 X66.177 Y148.222 E.01175
;WIDTH:0.54292
G1 X65.693 Y148 E.02169
G1 X66.177 Y147.778 E.02169
;WIDTH:0.499999
G1 X66.306 Y147.6 E.00819
G1 X66.379 Y147.293 E.01176
G1 X66.379 Y145.779 E.0564
G1 X233.621 Y145.779 E6.22915
G1 X233.621 Y147.293 E.0564
G1 X233.657 Y147.51 E.0082
G1 X233.823 Y147.778 E.01175
;WIDTH:0.54832
G1 X234.245 Y148 E.01964
G1 X233.823 Y148.222 E.01964
;WIDTH:0.499999
G1 X233.694 Y148.4 E.00819
G1 X233.621 Y148.707 E.01176
G1 X233.621 Y151.293 E.09631
G1 X233.657 Y151.51 E.0082
G1 X233.823 Y151.778 E.01175
;WIDTH:0.54832
G1 X234.245 Y152 E.01964
G1 X233.823 Y152.222 E.01964
;WIDTH:0.499999
G1 X233.694 Y152.4 E.00819
G1 X233.621 Y152.707 E.01176
G1 X233.621 Y154.221 E.0564
G1 X66.379 Y154.221 E6.22915
G1 X66.379 Y152.707 E.0564
M73 P0 R31
G1 X66.343 Y152.49 E.0082
G1 X66.177 Y152.222 E.01175
;WIDTH:0.54292
G1 X65.693 Y152 E.02169
G1 X66.177 Y151.778 E.02169
;WIDTH:0.499999
G1 X66.306 Y151.6 E.00819
G1 X66.379 Y151.293 E.01176
G1 X66.379 Y148.707 E.09631
G1 X66.372 Y148.664 E.00161
G1 X65.9 Y148.707 F30000
;TYPE:Outer wall
G1 F3600
G1 X65.839 Y148.56 E.00591
G1 X65.693 Y148.5 E.00589
G1 X61.9 Y148.5 E.14127
G1 X61.9 Y147.5 E.03725
G1 X65.693 Y147.5 E.14127
G1 X65.839 Y147.44 E.00589
G1 X65.9 Y147.293 E.00591
G1 X65.9 Y145.3 E.07423
G1 X234.1 Y145.3 E6.2648
G1 X234.1 Y147.293 E.07423
G1 X234.161 Y147.44 E.00591
G1 X234.307 Y147.5 E.00589
G1 X238.1 Y147.5 E.14127
G1 X238.1 Y148.5 E.03725
G1 X234.307 Y148.5 E.14127
G1 X234.161 Y148.56 E.00589
G1 X234.1 Y148.707 E.00591
G1 X234.1 Y151.293 E.09631
G1 X234.161 Y151.44 E.00591
G1 X234.307 Y151.5 E.00589
G1 X238.1 Y151.5 E.14127
G1 X238.1 Y152.5 E.03725
G1 X234.307 Y152.5 E.14127
G1 X234.161 Y152.56 E.00589
G1 X234.1 Y152.707 E.00591
G1 X234.1 Y154.7 E.07423
G1 X65.9 Y154.7 E6.2648
G1 X65.9 Y152.707 E.07423
M73 P1 R31
G1 X65.839 Y152.56 E.00591
G1 X65.693 Y152.5 E.00589
G1 X61.9 Y152.5 E.14127
G1 X61.9 Y151.5 E.03725
G1 X65.693 Y151.5 E.14127
G1 X65.839 Y151.44 E.00589
G1 X65.9 Y151.293 E.00591
G1 X65.9 Y148.747 E.09482
;WIPE_START
G1 X65.839 Y148.56 E-.0589
G1 X65.693 Y148.5 E-.04746
G1 X64.047 Y148.5 E-.49364
;WIPE_END
G1 Z.4 F30000
G1 X234.245 Y152 Z.4
G1 Z.2
G1 E.6 F2400
;TYPE:Inner wall
;WIDTH:0.54832
G1 F3600
G1 X234.307 Y152 E.00255
;WIDTH:0.54292
G1 X237.6 Y152 E.13417
;WIPE_START
G1 X235.6 Y152 E-.6
;WIPE_END
G1 Z.4 F30000
G1 X237.6 Y148 Z.4
G1 Z.2
G1 E.6 F2400
G1 F3600
G1 X234.307 Y148 E.13417
;WIDTH:0.54832
G1 X234.245 Y148 E.00255
;WIPE_START
G1 X234.307 Y148 E-.01856
G1 X236.245 Y148 E-.58144
;WIPE_END
G1 Z.4 F30000
G1 X62.4 Y148 Z.4
G1 Z.2
G1 E.6 F2400
;WIDTH:0.54292
G1 F3600
G1 X65.693 Y148 E.13417
;WIPE_START
G1 X63.693 Y148 E-.6
;WIPE_END
G1 Z.4 F30000
G1 X62.4 Y152 Z.4
G1 Z.2
G1 E.6 F2400
G1 F3600
G1 X65.693 Y152 E.13417
;WIPE_START
G1 X63.693 Y152 E-.6
;WIPE_END
G1 Z.4 F30000
G1 X232.102 Y146.373 Z.4
G1 Z.2
G1 E.6 F2400
;TYPE:Bottom surface
;WIDTH:0.500429
G1 F6021.962
G1 X232.822 Y147.092 E.03792
G1 X232.822 Y147.3 E.00775
G1 X232.865 Y147.65 E.01313
G1 X232.934 Y147.852 E.00797
G1 X231.661 Y146.578 E.06714
G1 X231.014 Y146.578 E.02412
G1 X232.856 Y148.42 E.09712
G1 X232.822 Y148.7 E.0105
G1 X232.822 Y149.033 E.01241
G1 X230.367 Y146.578 E.12941
G1 X229.72 Y146.578 E.02412
G1 X232.822 Y149.68 E.16353
G1 X232.822 Y150.327 E.02412
G1 X229.073 Y146.578 E.19764
G1 X228.426 Y146.578 E.02412
G1 X232.822 Y150.974 E.23175
G1 X232.822 Y151.3 E.01215
G1 X232.871 Y151.67 E.01393
G1 X227.779 Y146.578 E.26846
G1 X227.132 Y146.578 E.02412
G1 X232.875 Y152.321 E.30277
G1 X232.822 Y152.7 E.01427
G1 X232.822 Y152.915 E.00802
G1 X226.485 Y146.578 E.33409
G1 X225.838 Y146.578 E.02412
G1 X232.681 Y153.422 E.36079
G1 X232.034 Y153.422 E.02412
G1 X225.191 Y146.578 E.3608
G1 X224.544 Y146.578 E.02412
G1 X231.387 Y153.422 E.3608
G1 X230.74 Y153.422 E.02412
G1 X223.897 Y146.578 E.3608
G1 X223.25 Y146.578 E.02412
G1 X230.093 Y153.422 E.3608
G1 X229.446 Y153.422 E.02412
G1 X222.603 Y146.578 E.36079
G1 X221.956 Y146.578 E.02412
G1 X228.799 Y153.422 E.3608
G1 X228.152 Y153.422 E.02412
G1 X221.309 Y146.578 E.36079
G1 X220.662 Y146.578 E.02412
G1 X227.505 Y153.422 E.3608
G1 X226.858 Y153.422 E.02412
G1 X220.015 Y146.578 E.36079
G1 X219.368 Y146.578 E.02412
G1 X226.211 Y153.422 E.3608
G1 X225.564 Y153.422 E.02412
G1 X218.721 Y146.578 E.3608
G1 X218.074 Y146.578 E.02412
G1 X224.917 Y153.422 E.36079
G1 X224.27 Y153.422 E.02412
G1 X217.427 Y146.578 E.3608
G1 X216.78 Y146.578 E.02412
G1 X223.623 Y153.422 E.36079
G1 X222.976 Y153.422 E.02412
G1 X216.133 Y146.578 E.3608
G1 X215.486 Y146.578 E.02412
G1 X222.329 Y153.422 E.36079
G1 X221.682 Y153.422 E.02412
G1 X214.839 Y146.578 E.3608
G1 X214.192 Y146.578 E.02412
G1 X221.035 Y153.422 E.3608
G1 X220.388 Y153.422 E.02412
G1 X213.545 Y146.578 E.36079
G1 X212.898 Y146.578 E.02412
G1 X219.741 Y153.422 E.3608
G1 X219.094 Y153.422 E.02412
G1 X212.251 Y146.578 E.36079
G1 X211.604 Y146.578 E.02412
G1 X218.447 Y153.422 E.3608
G1 X217.8 Y153.422 E.02412
G1 X210.957 Y146.578 E.36079
G1 X210.31 Y146.578 E.02412
G1 X217.153 Y153.422 E.3608
G1 X216.506 Y153.422 E.02412
G1 X209.663 Y146.578 E.3608
G1 X209.016 Y146.578 E.02412
G1 X215.859 Y153.422 E.36079
G1 X215.212 Y153.422 E.02412
G1 X208.368 Y146.578 E.3608
G1 X207.721 Y146.578 E.02412
G1 X214.565 Y153.422 E.36079
G1 X213.918 Y153.422 E.02412
G1 X207.074 Y146.578 E.3608
G1 X206.427 Y146.578 E.02412
G1 X213.271 Y153.422 E.36079
G1 X212.624 Y153.422 E.02412
M73 P2 R31
G1 X205.78 Y146.578 E.3608
G1 X205.133 Y146.578 E.02412
G1 X211.977 Y153.422 E.3608
G1 X211.33 Y153.422 E.02412
G1 X204.486 Y146.578 E.3608
G1 X203.839 Y146.578 E.02412
G1 X210.683 Y153.422 E.3608
G1 X210.036 Y153.422 E.02412
G1 X203.192 Y146.578 E.36079
G1 X202.545 Y146.578 E.02412
G1 X209.388 Y153.422 E.3608
G1 X208.741 Y153.422 E.02412
G1 X201.898 Y146.578 E.36079
G1 X201.251 Y146.578 E.02412
G1 X208.094 Y153.422 E.3608
G1 X207.447 Y153.422 E.02412
G1 X200.604 Y146.578 E.3608
G1 X199.957 Y146.578 E.02412
G1 X206.8 Y153.422 E.3608
G1 X206.153 Y153.422 E.02412
G1 X199.31 Y146.578 E.3608
G1 X198.663 Y146.578 E.02412
G1 X205.506 Y153.422 E.36079
G1 X204.859 Y153.422 E.02412
G1 X198.016 Y146.578 E.3608
G1 X197.369 Y146.578 E.02412
G1 X204.212 Y153.422 E.36079
G1 X203.565 Y153.422 E.02412
G1 X196.722 Y146.578 E.3608
G1 X196.075 Y146.578 E.02412
G1 X202.918 Y153.422 E.36079
G1 X202.271 Y153.422 E.02412
G1 X195.428 Y146.578 E.3608
G1 X194.781 Y146.578 E.02412
G1 X201.624 Y153.422 E.3608
G1 X200.977 Y153.422 E.02412
G1 X194.134 Y146.578 E.36079
G1 X193.487 Y146.578 E.02412
G1 X200.33 Y153.422 E.3608
G1 X199.683 Y153.422 E.02412
G1 X192.84 Y146.578 E.36079
G1 X192.193 Y146.578 E.02412
G1 X199.036 Y153.422 E.3608
G1 X198.389 Y153.422 E.02412
G1 X191.546 Y146.578 E.36079
G1 X190.899 Y146.578 E.02412
G1 X197.742 Y153.422 E.36079
G1 X197.095 Y153.422 E.02412
G1 X190.252 Y146.578 E.36079
G1 X189.605 Y146.578 E.02412
G1 X196.448 Y153.422 E.36079
G1 X195.801 Y153.422 E.02412
G1 X188.958 Y146.578 E.36079
G1 X188.311 Y146.578 E.02412
G1 X195.154 Y153.422 E.36079
G1 X194.507 Y153.422 E.02412
G1 X187.664 Y146.578 E.36079
G1 X187.017 Y146.578 E.02412
G1 X193.86 Y153.422 E.36079
G1 X193.213 Y153.422 E.02412
G1 X186.37 Y146.578 E.36079
G1 X185.723 Y146.578 E.02412
G1 X192.566 Y153.422 E.36079
G1 X191.919 Y153.422 E.02412
G1 X185.076 Y146.578 E.36079
G1 X184.429 Y146.578 E.02412
G1 X191.272 Y153.422 E.36079
G1 X190.625 Y153.422 E.02412
G1 X183.782 Y146.578 E.36079
G1 X183.135 Y146.578 E.02412
G1 X189.978 Y153.422 E.36079
G1 X189.331 Y153.422 E.02412
G1 X182.488 Y146.578 E.36079
G1 X181.841 Y146.578 E.02412
G1 X188.684 Y153.422 E.36079
G1 X188.037 Y153.422 E.02412
G1 X181.194 Y146.578 E.36079
G1 X180.547 Y146.578 E.02412
G1 X187.39 Y153.422 E.36079
G1 X186.743 Y153.422 E.02412
G1 X179.9 Y146.578 E.36079
G1 X179.253 Y146.578 E.02412
G1 X186.096 Y153.422 E.36079
G1 X185.449 Y153.422 E.02412
G1 X178.606 Y146.578 E.36079
G1 X177.959 Y146.578 E.02412
G1 X184.802 Y153.422 E.36079
G1 X184.155 Y153.422 E.02412
G1 X177.312 Y146.578 E.36079
G1 X176.665 Y146.578 E.02412
G1 X183.508 Y153.422 E.36079
G1 X182.861 Y153.422 E.02412
G1 X176.018 Y146.578 E.36079
G1 X175.371 Y146.578 E.02412
G1 X182.214 Y153.422 E.36079
G1 X181.567 Y153.422 E.02412
G1 X174.724 Y146.578 E.36079
G1 X174.077 Y146.578 E.02412
G1 X180.92 Y153.422 E.36079
G1 X180.273 Y153.422 E.02412
G1 X173.43 Y146.578 E.36079
G1 X172.783 Y146.578 E.02412
G1 X179.626 Y153.422 E.36079
G1 X178.979 Y153.422 E.02412
G1 X172.136 Y146.578 E.36079
G1 X171.489 Y146.578 E.02412
G1 X178.332 Y153.422 E.36079
G1 X177.685 Y153.422 E.02412
G1 X170.842 Y146.578 E.36079
G1 X170.195 Y146.578 E.02412
G1 X177.038 Y153.422 E.3608
G1 X176.391 Y153.422 E.02412
G1 X169.548 Y146.578 E.36079
G1 X168.901 Y146.578 E.02412
G1 X175.744 Y153.422 E.3608
G1 X175.097 Y153.422 E.02412
G1 X168.254 Y146.578 E.3608
G1 X167.607 Y146.578 E.02412
G1 X174.45 Y153.422 E.36079
G1 X173.803 Y153.422 E.02412
G1 X166.96 Y146.578 E.3608
G1 X166.312 Y146.578 E.02412
G1 X173.156 Y153.422 E.36079
G1 X172.509 Y153.422 E.02412
G1 X165.665 Y146.578 E.3608
G1 X165.018 Y146.578 E.02412
G1 X171.862 Y153.422 E.36079
G1 X171.215 Y153.422 E.02412
G1 X164.371 Y146.578 E.3608
G1 X163.724 Y146.578 E.02412
G1 X170.568 Y153.422 E.3608
G1 X169.921 Y153.422 E.02412
G1 X163.077 Y146.578 E.3608
M73 P3 R31
G1 X162.43 Y146.578 E.02412
G1 X169.274 Y153.422 E.3608
G1 X168.627 Y153.422 E.02412
G1 X161.783 Y146.578 E.36079
G1 X161.136 Y146.578 E.02412
G1 X167.98 Y153.422 E.3608
G1 X167.332 Y153.422 E.02412
G1 X160.489 Y146.578 E.36079
G1 X159.842 Y146.578 E.02412
G1 X166.685 Y153.422 E.3608
G1 X166.038 Y153.422 E.02412
G1 X159.195 Y146.578 E.3608
G1 X158.548 Y146.578 E.02412
G1 X165.391 Y153.422 E.3608
G1 X164.744 Y153.422 E.02412
G1 X157.901 Y146.578 E.3608
G1 X157.254 Y146.578 E.02412
G1 X164.097 Y153.422 E.36079
G1 X163.45 Y153.422 E.02412
G1 X156.607 Y146.578 E.3608
G1 X155.96 Y146.578 E.02412
G1 X162.803 Y153.422 E.36079
G1 X162.156 Y153.422 E.02412
G1 X155.313 Y146.578 E.3608
G1 X154.666 Y146.578 E.02412
G1 X161.509 Y153.422 E.36079
G1 X160.862 Y153.422 E.02412
G1 X154.019 Y146.578 E.3608
G1 X153.372 Y146.578 E.02412
G1 X160.215 Y153.422 E.3608
G1 X159.568 Y153.422 E.02412
G1 X152.725 Y146.578 E.36079
G1 X152.078 Y146.578 E.02412
G1 X158.921 Y153.422 E.3608
G1 X158.274 Y153.422 E.02412
G1 X151.431 Y146.578 E.36079
G1 X150.784 Y146.578 E.02412
G1 X157.627 Y153.422 E.3608
G1 X156.98 Y153.422 E.02412
G1 X150.137 Y146.578 E.36079
G1 X149.49 Y146.578 E.02412
G1 X156.333 Y153.422 E.3608
G1 X155.686 Y153.422 E.02412
G1 X148.843 Y146.578 E.3608
G1 X148.196 Y146.578 E.02412
G1 X155.039 Y153.422 E.36079
G1 X154.392 Y153.422 E.02412
G1 X147.549 Y146.578 E.3608
G1 X146.902 Y146.578 E.02412
G1 X153.745 Y153.422 E.36079
G1 X153.098 Y153.422 E.02412
G1 X146.255 Y146.578 E.3608
G1 X145.608 Y146.578 E.02412
G1 X152.451 Y153.422 E.36079
G1 X151.804 Y153.422 E.02412
G1 X144.961 Y146.578 E.3608
G1 X144.314 Y146.578 E.02412
G1 X151.157 Y153.422 E.3608
G1 X150.51 Y153.422 E.02412
G1 X143.667 Y146.578 E.36079
G1 X143.02 Y146.578 E.02412
G1 X149.863 Y153.422 E.3608
G1 X149.216 Y153.422 E.02412
G1 X142.373 Y146.578 E.36079
G1 X141.726 Y146.578 E.02412
G1 X148.569 Y153.422 E.3608
G1 X147.922 Y153.422 E.02412
G1 X141.079 Y146.578 E.36079
G1 X140.432 Y146.578 E.02412
G1 X147.275 Y153.422 E.3608
G1 X146.628 Y153.422 E.02412
G1 X139.785 Y146.578 E.3608
G1 X139.138 Y146.578 E.02412
G1 X145.981 Y153.422 E.3608
G1 X145.334 Y153.422 E.02412
G1 X138.491 Y146.578 E.3608
G1 X137.844 Y146.578 E.02412
G1 X144.687 Y153.422 E.36079
G1 X144.04 Y153.422 E.02412
G1 X137.197 Y146.578 E.3608
G1 X136.55 Y146.578 E.02412
G1 X143.393 Y153.422 E.36079
G1 X142.746 Y153.422 E.02412
G1 X135.903 Y146.578 E.3608
G1 X135.256 Y146.578 E.02412
G1 X142.099 Y153.422 E.3608
G1 X141.452 Y153.422 E.02412
G1 X134.609 Y146.578 E.3608
G1 X133.962 Y146.578 E.02412
G1 X140.805 Y153.422 E.3608
G1 X140.158 Y153.422 E.02412
G1 X133.315 Y146.578 E.36079
G1 X132.668 Y146.578 E.02412
G1 X139.511 Y153.422 E.3608
G1 X138.864 Y153.422 E.02412
G1 X132.021 Y146.578 E.36079
G1 X131.374 Y146.578 E.02412
G1 X138.217 Y153.422 E.3608
G1 X137.57 Y153.422 E.02412
G1 X130.727 Y146.578 E.36079
G1 X130.08 Y146.578 E.02412
G1 X136.923 Y153.422 E.3608
M73 P3 R30
G1 X136.276 Y153.422 E.02412
G1 X129.433 Y146.578 E.3608
G1 X128.786 Y146.578 E.02412
G1 X135.629 Y153.422 E.36079
G1 X134.982 Y153.422 E.02412
G1 X128.139 Y146.578 E.3608
G1 X127.492 Y146.578 E.02412
G1 X134.335 Y153.422 E.36079
G1 X133.688 Y153.422 E.02412
G1 X126.845 Y146.578 E.3608
G1 X126.198 Y146.578 E.02412
G1 X133.041 Y153.422 E.36079
G1 X132.394 Y153.422 E.02412
G1 X125.551 Y146.578 E.3608
G1 X124.903 Y146.578 E.02412
G1 X131.747 Y153.422 E.3608
G1 X131.1 Y153.422 E.02412
G1 X124.256 Y146.578 E.36079
G1 X123.609 Y146.578 E.02412
G1 X130.453 Y153.422 E.3608
G1 X129.806 Y153.422 E.02412
G1 X122.962 Y146.578 E.36079
G1 X122.315 Y146.578 E.02412
G1 X129.159 Y153.422 E.3608
G1 X128.512 Y153.422 E.02412
G1 X121.668 Y146.578 E.36079
G1 X121.021 Y146.578 E.02412
G1 X127.865 Y153.422 E.3608
G1 X127.218 Y153.422 E.02412
G1 X120.374 Y146.578 E.3608
G1 X119.727 Y146.578 E.02412
M73 P4 R30
G1 X126.571 Y153.422 E.3608
G1 X125.924 Y153.422 E.02412
G1 X119.08 Y146.578 E.3608
G1 X118.433 Y146.578 E.02412
G1 X125.276 Y153.422 E.36079
G1 X124.629 Y153.422 E.02412
G1 X117.786 Y146.578 E.3608
G1 X117.139 Y146.578 E.02412
G1 X123.982 Y153.422 E.36079
G1 X123.335 Y153.422 E.02412
G1 X116.492 Y146.578 E.3608
G1 X115.845 Y146.578 E.02412
G1 X122.688 Y153.422 E.3608
G1 X122.041 Y153.422 E.02412
G1 X115.198 Y146.578 E.3608
G1 X114.551 Y146.578 E.02412
G1 X121.394 Y153.422 E.3608
G1 X120.747 Y153.422 E.02412
G1 X113.904 Y146.578 E.36079
G1 X113.257 Y146.578 E.02412
G1 X120.1 Y153.422 E.3608
G1 X119.453 Y153.422 E.02412
G1 X112.61 Y146.578 E.36079
G1 X111.963 Y146.578 E.02412
G1 X118.806 Y153.422 E.3608
G1 X118.159 Y153.422 E.02412
G1 X111.316 Y146.578 E.36079
G1 X110.669 Y146.578 E.02412
G1 X117.512 Y153.422 E.3608
G1 X116.865 Y153.422 E.02412
